src/status/22/mic-off.svg

<svg width="22" height="22" version="1.1" xmlns="http://www.w3.org/2000/svg">
 <defs>
  <style id="current-color-scheme" type="text/css">.ColorScheme-Text { color:#363636; } .ColorScheme-Highlight { color:#4285f4; }</style>
 </defs>
 <path d="m11 4c-1.3263 0-2.4337 0.8581-2.832 2.0469l5.7207 5.7207c0.065096-0.24649 0.11133-0.50007 0.11133-0.76758v-4c0-1.662-1.338-3-3-3zm-3 3.293v3.707c0 1.662 1.338 3 3 3 1.0126 0 1.9006-0.49964 2.4434-1.2637l-5.4434-5.4434zm-1.5 1.707c-0.277 0-0.5 0.223-0.5 0.5v1.5c0 2.6 1.967 4.7246 4.5 4.9746v1.0254h-2a0.5 0.5 0 0 0 0 1h5a0.5 0.5 0 0 0 0-1h-2v-1.0254a4.988 4.988 0 0 0 3.375-1.8066l-0.72461-0.72461c-0.73053 0.94196-1.8607 1.5566-3.1504 1.5566-2.216 0-4-1.784-4-4v-1.5c0-0.277-0.223-0.5-0.5-0.5zm9.0117 0a0.5 0.5 0 0 0-0.51172 0.5v1.5c0 0.55556-0.1115 1.0845-0.31445 1.5645l0.75 0.75a4.988 4.988 0 0 0 0.56445-2.3145v-1.5a0.5 0.5 0 0 0-0.48828-0.5z" class="ColorScheme-Text" fill="currentColor" opacity=".35"/>
 <rect transform="rotate(45)" x="4.5563" y="-.5" width="22" height="1" rx="0" ry="0" class="ColorScheme-Text" fill="currentColor"/>
</svg>

<svg xmlns="http://www.w3.org/2000/svg" width="22" height="22">
    <defs>
        <style id="current-color-scheme" type="text/css">
            .ColorScheme-Text{color:#050505;opacity:.7}
        </style>
    </defs>
    <path fill="currentColor" d="M11 4a2.983 2.983 0 0 0-2.832 2.047l5.72 5.72c.066-.246.112-.5.112-.767V7c0-1.662-1.338-3-3-3zM8 7.293V11c0 1.662 1.338 3 3 3 1.013 0 1.9-.5 2.443-1.264L8 7.293zM6.5 9c-.277 0-.5.223-.5.5V11c0 2.6 1.967 4.725 4.5 4.975V17h-2a.5.5 0 0 0 0 1h5a.5.5 0 0 0 0-1h-2v-1.025a4.988 4.988 0 0 0 3.375-1.807l-.725-.725A3.972 3.972 0 0 1 11 15c-2.216 0-4-1.784-4-4V9.5c0-.277-.223-.5-.5-.5zm9.012 0a.5.5 0 0 0-.512.5V11c0 .556-.112 1.085-.314 1.565l.75.75A4.988 4.988 0 0 0 16 11V9.5a.5.5 0 0 0-.488-.5z" class="ColorScheme-Text" opacity=".35"/>
    <rect width="22" height="1" x="4.556" y="-.5" fill="currentColor" class="ColorScheme-Text" rx="0" ry="0" transform="rotate(45)"/>
</svg>
